Papirus/22x22/mimetypes/text-x-chdr.svg

<svg width="22" height="22" version="1" xmlns="http://www.w3.org/2000/svg">
 <path d="m4 1.5c-0.554 0-1 0.446-1 1v18c0 0.554 0.446 1 1 1h14c0.554 0 1-0.446 1-1v-13l-5.5-0.5-0.5-5.5z" style="opacity:.2"/>
 <path d="m4 1c-0.554 0-1 0.446-1 1v18c0 0.554 0.446 1 1 1h14c0.554 0 1-0.446 1-1v-13l-5.5-0.5-0.5-5.5z" style="fill:#c75bdc"/>
 <path d="m4 1c-0.554 0-1 0.446-1 1v0.5c0-0.554 0.446-1 1-1h9l5.5 5.5h0.5l-6-6z" style="fill:#ffffff;opacity:.1"/>
 <path d="m13 1.5v5c0 0.5523 0.44772 1 1 1h5z" style="opacity:.2"/>
 <path d="m13 1v5c0 0.5523 0.44772 1 1 1h5z" style="fill:#da7cec"/>
 <path d="m10.000065 9.9852664v8.0000006-3s0-2 1.999971-2c2 0 1.97031 2 1.97031 2l0.02969 2" style="fill:none;stroke-linecap:square;stroke-linejoin:bevel;stroke-width:2;stroke:#ffffff"/>
 <rect x="5" y="16" width="2" height="2" style="fill:#ffffff"/>
</svg>

<svg xmlns="http://www.w3.org/2000/svg" width="22" height="22" version="1">
 <path style="opacity:0.2" d="m 4,1.5 c -0.554,0 -1,0.446 -1,1 v 18 c 0,0.554 0.446,1 1,1 h 14 c 0.554,0 1,-0.446 1,-1 V 7.5 L 13.5,7 13,1.5 Z"/>
 <path style="fill:#e4e4e4" d="M 4,1 C 3.446,1 3,1.446 3,2 v 18 c 0,0.554 0.446,1 1,1 h 14 c 0.554,0 1,-0.446 1,-1 V 7 L 13.5,6.5 13,1 Z"/>
 <path style="opacity:0.2;fill:#ffffff" d="M 4,1 C 3.446,1 3,1.446 3,2 v 0.5 c 0,-0.554 0.446,-1 1,-1 h 9 L 18.5,7 H 19 L 13,1 Z"/>
 <path style="opacity:0.2" d="m 13,1.5 v 5 c 0,0.5523 0.44772,1 1,1 h 5 z"/>
 <path style="fill:#fafafa" d="m 13,1 v 5 c 0,0.5523 0.44772,1 1,1 h 5 z"/>
 <path style="fill:#c554d9" d="m 10,10 v 9 h 2 v -4 h 1 v 4 h 2 v -6 h -3 v -3 z"/>
 <circle style="fill:#c554d9" cx="7.5" cy="17.5" r="1.5"/>
</svg>
